img/background/back.svg

<svg xmlns="http://www.w3.org/2000/svg" xmlns:xlink="http://www.w3.org/1999/xlink" width="1973.613" height="3156.5" viewBox="0 0 1973.613 3156.5">
  <defs>
    <filter id="Favorite_Beaches" x="0" y="780.5" width="1970.613" height="804" filterUnits="userSpaceOnUse">
      <feOffset dy="3" input="SourceAlpha"/>
      <feGaussianBlur stdDeviation="3" result="blur"/>
      <feFlood/>
      <feComposite operator="in" in2="blur"/>
      <feComposite in="SourceGraphic"/>
    </filter>
    <filter id="Favorite_Beaches-2" x="3" y="2352.5" width="1970.613" height="804" filterUnits="userSpaceOnUse">
      <feOffset dx="3" dy="3" input="SourceAlpha"/>
      <feGaussianBlur stdDeviation="3" result="blur-2"/>
      <feFlood/>
      <feComposite operator="in" in2="blur-2"/>
      <feComposite in="SourceGraphic"/>
    </filter>
  </defs>
  <g id="background" transform="translate(25.381)">
    <g id="Favorite_Beaches-3" data-name="Favorite_Beaches" transform="translate(-16.381 1566.811)" fill="#6fe2dd">
      <path d="M 1950.048950195312 791.1891479492188 L 0.5001449584960938 791.1891479492188 L 0.5001449584960938 0.7423064708709717 L 1950.048950195312 791.1891479492188 Z" stroke="none"/>
      <path d="M 0.9998779296875 1.48455810546875 L 0.9998779296875 790.6891479492188 L 1947.48486328125 790.6891479492188 L 0.9998779296875 1.48455810546875 M -0.0001220703125 6.103515625e-05 L 1952.612548828125 791.6891479492188 L -0.0001220703125 791.6891479492188 L -0.0001220703125 6.103515625e-05 Z" stroke="none" fill="#6fe2dd"/>
    </g>
    <g transform="matrix(1, 0, 0, 1, -25.38, 0)" filter="url(#Favorite_Beaches)">
      <path id="Favorite_Beaches-4" data-name="Favorite_Beaches" d="M0,786V0H1952.613Z" transform="translate(9 786.5)" fill="#6fe2dd"/>
    </g>
    <g id="Favorite_Beaches-5" data-name="Favorite_Beaches" transform="translate(-16.381)" fill="#6fe2dd">
      <path d="M 1952.11279296875 785.5 L 2.581145763397217 785.5 L 1952.11279296875 0.7402186989784241 L 1952.11279296875 785.5 Z" stroke="none"/>
      <path d="M 1951.612548828125 1.48040771484375 L 5.161865234375 785 L 1951.612548828125 785 L 1951.612548828125 1.48040771484375 M 1952.612548828125 0 L 1952.612548828125 786 L -0.0001220703125 786 L 1952.612548828125 0 Z" stroke="none" fill="#6fe2dd"/>
    </g>
    <g transform="matrix(1, 0, 0, 1, -25.38, 0)" filter="url(#Favorite_Beaches-2)">
      <g id="Favorite_Beaches-6" data-name="Favorite_Beaches" transform="translate(12.74 2359.99)" fill="#6fe2dd">
        <path d="M 1948.3740234375 783.771728515625 L -1.152913331985474 -0.9860697984695435 L 1948.3740234375 0.4968210160732269 L 1948.3740234375 783.771728515625 Z" stroke="none"/>
        <path d="M 1947.8740234375 783.0315551757812 L 1947.8740234375 0.9964408874511719 L 1.432974576950073 -0.4841026961803436 L 1947.8740234375 783.0315551757812 M 1948.8740234375 784.511962890625 L -3.738801717758179 -1.488037109375 L 1948.8740234375 -0.00279901409521699 L 1948.8740234375 784.511962890625 Z" stroke="none" fill="#6fe2dd"/>
      </g>
    </g>
  </g>
</svg>

<svg height="3156.5" viewBox="0 0 1973.613 3156.5" width="1973.613" xmlns="http://www.w3.org/2000/svg" xmlns:xlink="http://www.w3.org/1999/xlink"><filter id="a" filterUnits="userSpaceOnUse" height="804" width="1970.613" x="0" y="780.5"><feOffset dy="3"/><feGaussianBlur result="blur" stdDeviation="3"/><feFlood/><feComposite in2="blur" operator="in"/><feComposite in="SourceGraphic"/></filter><filter id="b" filterUnits="userSpaceOnUse" height="804" width="1970.613" x="3" y="2352.5"><feOffset dx="3" dy="3"/><feGaussianBlur result="blur-2" stdDeviation="3"/><feFlood/><feComposite in2="blur-2" operator="in"/><feComposite in="SourceGraphic"/></filter><g fill="#6fe2dd" transform="translate(9 1566.811)"><path d="m1950.0489502 791.18914795h-1949.54880524v-790.44684148z"/><path d="m.99987793 1.48455811v789.20458984h1946.48498535zm-1-1.48449707 1952.6126709 791.68908691h-1952.6126709z" fill="#6fe2dd"/></g><g filter="url(#a)" transform="translate(.001)"><path d="m0 786v-786h1952.613z" fill="#6fe2dd" transform="translate(9 786.5)"/></g><g fill="#6fe2dd" transform="translate(9)"><path d="m1952.11279297 785.5h-1949.53164721l1949.53164721-784.7597813z"/><path d="m1951.61254883 1.48040771-1946.4506836 783.51959229h1946.4506836zm1-1.48040771v786h-1952.6126709z" fill="#6fe2dd"/></g><g filter="url(#b)" transform="translate(.001)"><g fill="#6fe2dd" transform="translate(12.74 2359.99)"><path d="m1948.37402344 783.77172852-1949.52693677-784.75779832 1949.52693677 1.48289082z"/><path d="m1947.87402344 783.03155518v-782.03511429l-1946.44104886-1.48054359zm1 1.48040771-1952.61282516-786 1952.61282516 1.4852381z" fill="#6fe2dd"/></g></g></svg>
